<?xml version="1.0" encoding="UTF-8"?>
<map version="1.10" tiledversion="1.11.2" orientation="orthogonal" renderorder="right-down" width="21" height="14" tilewidth="16" tileheight="16" infinite="0" nextlayerid="7" nextobjectid="1">
 <tileset firstgid="1" source="tileset.tsx"/>
 <layer id="2" name="Collision Border" width="21" height="14">
  <data encoding="csv">
412,413,413,413,413,413,413,413,413,413,413,413,413,413,413,413,413,413,413,413,414,
620,465,465,465,465,465,465,465,465,465,465,465,465,465,465,465,465,465,465,465,466,
620,517,517,517,517,517,517,517,517,517,517,517,517,517,517,517,517,517,517,517,466,
620,0,0,0,0,0,0,0,0,0,0,0,0,0,0,0,0,0,0,0,466,
620,0,0,0,0,0,0,0,0,0,0,0,0,0,0,0,0,0,0,0,466,
620,0,0,0,0,0,0,0,0,0,0,0,0,0,0,0,0,0,0,0,466,
620,0,0,0,0,0,0,0,0,0,0,0,0,0,0,0,0,0,0,0,466,
620,0,0,0,0,0,0,0,0,0,0,0,0,0,0,0,0,0,0,0,466,
620,0,0,0,0,0,0,0,0,0,0,0,0,0,0,0,0,0,0,0,466,
672,673,673,673,673,673,673,673,673,0,0,0,673,673,673,673,673,673,673,673,674,
0,0,0,0,0,0,0,0,0,0,0,0,0,0,0,0,0,0,0,0,0,
0,0,0,0,0,0,0,0,0,0,0,0,0,0,0,0,0,0,0,0,0,
0,0,0,0,0,0,0,0,0,0,0,0,0,0,0,0,0,0,0,0,0,
0,0,0,0,0,0,0,0,0,0,0,0,0,0,0,0,0,0,0,0,0
</data>
 </layer>
 <layer id="1" name="Floor" width="21" height="14">
  <data encoding="csv">
0,0,0,0,0,0,0,0,0,0,0,0,0,0,0,0,0,0,0,0,0,
0,0,0,0,0,0,0,0,0,0,0,0,0,0,0,0,0,0,0,0,0,
0,0,0,0,0,0,0,0,0,0,0,0,0,0,0,0,0,0,0,0,0,
0,621,621,621,621,621,621,621,621,621,621,621,621,621,621,621,621,621,621,621,0,
0,621,621,621,621,621,621,621,621,621,621,621,621,621,621,621,621,621,621,621,0,
0,621,621,621,621,621,621,621,621,621,621,621,621,621,621,621,621,621,621,621,0,
0,621,621,621,621,621,621,621,621,621,621,621,621,621,621,621,621,621,621,621,0,
0,621,621,621,621,621,621,621,621,621,621,621,621,621,621,621,621,621,621,621,0,
0,621,621,621,621,621,621,621,621,621,621,621,621,621,621,621,621,621,621,621,0,
0,0,0,0,0,0,0,0,0,0,0,0,0,0,0,0,0,0,0,0,0,
0,0,0,0,0,0,0,0,0,0,0,0,0,0,0,0,0,0,0,0,0,
0,0,0,0,0,0,0,0,0,0,0,0,0,0,0,0,0,0,0,0,0,
0,0,0,0,0,0,0,0,0,0,0,0,0,0,0,0,0,0,0,0,0,
0,0,0,0,0,0,0,0,0,0,0,0,0,0,0,0,0,0,0,0,0
</data>
 </layer>
 <layer id="6" name="Collision" width="21" height="14">
  <data encoding="csv">
0,0,0,0,0,0,0,0,0,0,0,0,0,0,0,0,0,0,0,0,0,
0,0,0,0,0,0,0,0,0,0,0,0,0,0,0,0,0,0,0,0,0,
0,0,0,0,0,0,0,0,0,0,0,0,0,0,0,0,0,0,0,0,0,
0,0,0,0,0,0,0,0,0,0,0,0,0,0,0,0,0,0,0,0,0,
0,0,0,0,0,0,0,0,0,879,0,881,0,0,0,0,0,0,0,0,0,
0,0,0,0,0,0,0,0,0,931,932,933,0,0,0,0,0,0,0,0,0,
0,0,0,0,0,0,0,0,0,0,0,0,0,0,0,0,0,0,0,0,0,
0,0,0,0,0,0,0,0,0,0,0,0,0,0,0,0,0,0,0,0,0,
0,0,0,0,0,0,0,0,0,0,0,0,0,0,0,0,0,0,0,0,0,
0,0,0,0,0,0,0,0,0,0,0,0,0,0,0,0,0,0,0,0,0,
0,0,0,0,0,0,0,0,721,0,0,0,721,0,0,0,0,0,0,0,0,
0,0,0,0,0,0,0,0,773,0,0,0,773,0,0,0,0,0,0,0,0,
0,0,0,0,0,0,0,0,721,0,0,0,721,0,0,0,0,0,0,0,0,
0,0,0,0,0,0,0,0,773,0,0,0,773,0,0,0,0,0,0,0,0
</data>
 </layer>
 <layer id="3" name="Add-on" width="21" height="14">
  <data encoding="csv">
0,0,0,0,0,0,0,0,0,0,0,0,0,0,0,0,0,0,0,0,0,
0,0,0,0,0,0,0,0,0,0,0,0,0,0,0,0,0,0,0,0,0,
0,0,0,0,0,0,0,0,0,0,0,0,0,0,0,0,0,0,0,0,0,
0,0,0,0,0,0,0,0,0,0,0,0,0,0,0,0,0,0,0,0,0,
0,0,0,0,0,0,0,0,0,0,0,0,0,0,0,0,0,0,0,0,0,
0,0,0,0,0,0,0,0,0,0,0,0,0,0,0,0,0,0,0,0,0,
0,0,0,0,0,0,0,0,0,927,928,929,0,0,0,0,0,0,0,0,0,
0,0,0,0,0,0,0,0,0,979,980,981,0,0,0,0,0,0,0,0,0,
0,0,0,0,0,0,0,0,0,979,980,981,0,0,0,0,0,0,0,0,0,
0,0,0,0,0,0,0,0,0,979,980,981,0,0,0,0,0,0,0,0,0,
0,0,0,0,0,0,0,0,0,979,980,981,0,0,0,0,0,0,0,0,0,
0,0,0,0,0,0,0,0,0,979,980,981,0,0,0,0,0,0,0,0,0,
0,0,0,0,0,0,0,0,0,979,980,981,0,0,0,0,0,0,0,0,0,
0,0,0,0,0,0,0,0,0,1031,1032,1033,0,0,0,0,0,0,0,0,0
</data>
 </layer>
</map>
